X: 13765
T: Forlorn Queen, The
R: waltz
M: 3/4
K: Dmajor
||d2 ABde|f4|e2 de d/e/f |e/d/B A2 A2|
d2 ABde|f4|e2 de d/e/f |e2 d2|
AB|=c4 =c2|B4 A B|d2 B2 AG|F4 FA|B2 Bd BA|F4 B/A/F|E2 DE D/E/F|E2 D2|
AB|=c4 =c2|B4 AB|d2 B2 AG|F4 FA|B2 B<d BA|F4 B/A/F|E2 DE D/E/F|E2 D2||

